symbols/web/auto_read_pause/materialsymbolsoutlined/auto_read_pause_wght700grad200_20px.svg

<svg xmlns="http://www.w3.org/2000/svg" height="20" width="20"><path d="M6.979 11.958H9.25v-7.27H6.979Zm3.792 0h2.271v-7.27h-2.271ZM.708 19.375V3.521q0-1.229.844-2.073.844-.844 2.073-.844h12.75q1.229 0 2.073.844.844.844.844 2.073v9.396q0 1.229-.844 2.073-.844.843-2.073.843H4.25Zm2.917-6.437v-.021h12.75V3.521H3.625Zm0-9.417V12.938Z"/></svg>

<svg xmlns="http://www.w3.org/2000/svg" height="20" width="20"><path d="M6.979 11.958H9.25V4.688H6.979ZM10.771 11.958H13.042V4.688H10.771ZM0.708 19.375V3.521Q0.708 2.292 1.552 1.448Q2.396 0.604 3.625 0.604H16.375Q17.604 0.604 18.448 1.448Q19.292 2.292 19.292 3.521V12.917Q19.292 14.146 18.448 14.99Q17.604 15.833 16.375 15.833H4.25ZM3.625 12.917H16.375Q16.375 12.917 16.375 12.917Q16.375 12.917 16.375 12.917V3.521Q16.375 3.521 16.375 3.521Q16.375 3.521 16.375 3.521H3.625Q3.625 3.521 3.625 3.521Q3.625 3.521 3.625 3.521V12.917ZM3.625 12.917V3.521Q3.625 3.521 3.625 3.521Q3.625 3.521 3.625 3.521Q3.625 3.521 3.625 3.521Q3.625 3.521 3.625 3.521V12.917Q3.625 12.917 3.625 12.917Q3.625 12.917 3.625 12.917Z"/></svg>
